X: 1
T: The Peacock's Feathers
R: hornpipe
M: 4/4
L: 1/8
K: Dmin
|:AG|(3FED EC DA,DE|FEFA G2FG|A2d2 dcAG|FDA,=B,C2 AG|
(3FED EC DA,DE|FEFA G2FG|A2d2 dcAG|F2 D2 D2:|
|:A=B|c4 d4|dcA^F G2 A=B|c2 Ad dcAG|FDA,=B,C2 AG|
(3FED EC DA,DE|FEFA G2FG|A2d2 dcAG|F2 D2 D2:|


Tune 663	Setting 13701

